X: 35034
T: Rollicking Girl, The
R: polka
M: 2/4
K: Gminor
d/c/|BA GF|DG GA/B/|cc EG|c2 d>c|
BA GF|DG GA/B/|cc EG|c2 cA||
Bc d>d|ec d>c|BB AG|ff AF|
A>A G2|A/B/A/G/ FG|AB/c/ dc|A2 A2||

